X:5970
T:Shave the Donkey
O:england
M:4/4
C:
S:Bacon (RD)
N:
A:Bampton
R:Reel
%P:A/2.(AB$^3$)$^3$.A
P:A.(AB3)3.A
K:G
I:speed 300
P:A
|: d2 B2 dcBA | G2 g2 e2 g2 | d2 B2 dcBA | G2 B2 G4 :|\
P:B
|: A3 c B2 d2 | A3 c  B2 d2 | A3 c c2 e2 | dcBA  G4 :|


